src/assets/img/spotify.svg

<svg width="55" height="55" viewBox="0 0 55 55" fill="none" xmlns="http://www.w3.org/2000/svg">
<g clip-path="url(#clip0)">
<g filter="url(#filter0_d)">
<path d="M27.9999 2C14.1931 2 3 13.1931 3 27.0001C3 40.8078 14.1931 52 27.9999 52C41.8081 52 53 40.8078 53 27.0001C53 13.194 41.8081 2.00119 27.9996 2.00119L27.9999 2ZM39.4646 38.0574C39.0168 38.7918 38.0556 39.0247 37.3212 38.5739C31.4515 34.9884 24.0622 34.1764 15.3601 36.1647C14.5215 36.3557 13.6856 35.8303 13.4945 34.9914C13.3026 34.1525 13.8259 33.3166 14.6666 33.1255C24.1897 30.9489 32.3584 31.8866 38.9482 35.9139C39.6825 36.3647 39.9154 37.323 39.4646 38.0574ZM42.5246 31.2492C41.9603 32.1672 40.7602 32.4568 39.8438 31.8926C33.1238 27.7611 22.8804 26.5649 14.932 28.9777C13.9011 29.289 12.8124 28.7081 12.4995 27.679C12.1891 26.6482 12.7703 25.5615 13.7993 25.248C22.8786 22.4931 34.1657 23.8276 41.8827 28.5699C42.7992 29.1341 43.0888 30.3342 42.5246 31.2495V31.2492ZM42.7873 24.1608C34.7299 19.3749 21.4364 18.9349 13.7435 21.2697C12.5082 21.6444 11.2018 20.947 10.8275 19.7116C10.4531 18.4757 11.1499 17.1702 12.3861 16.7946C21.2169 14.1138 35.8972 14.6317 45.1737 20.1389C46.2872 20.7983 46.6514 22.2334 45.9917 23.3431C45.3349 24.4542 43.896 24.8205 42.7885 24.1608H42.7873Z" fill="white"/>
</g>
</g>
<defs>
<filter id="filter0_d" x="-1" y="2" width="58" height="58" filterUnits="userSpaceOnUse" color-interpolation-filters="sRGB">
<feFlood flood-opacity="0" result="BackgroundImageFix"/>
<feColorMatrix in="SourceAlpha" type="matrix" values="0 0 0 0 0 0 0 0 0 0 0 0 0 0 0 0 0 0 127 0"/>
<feOffset dy="4"/>
<feGaussianBlur stdDeviation="2"/>
<feColorMatrix type="matrix" values="0 0 0 0 0 0 0 0 0 0 0 0 0 0 0 0 0 0 0.25 0"/>
<feBlend mode="normal" in2="BackgroundImageFix" result="effect1_dropShadow"/>
<feBlend mode="normal" in="SourceGraphic" in2="effect1_dropShadow" result="shape"/>
</filter>
<clipPath id="clip0">
<rect width="55" height="55" fill="white"/>
</clipPath>
</defs>
</svg>

<svg width="55" height="55" fill="none" xmlns="http://www.w3.org/2000/svg"><g filter="url(#filter0_d)" clip-path="url(#clip0)"><path d="M28 2C14.193 2 3 13.193 3 27c0 13.808 11.193 25 25 25 13.808 0 25-11.192 25-25C53 13.194 41.808 2.001 28 2.001V2zm11.465 36.057a1.557 1.557 0 01-2.144.517c-5.87-3.586-13.259-4.398-21.96-2.41a1.559 1.559 0 01-.694-3.038c9.523-2.177 17.691-1.24 24.281 2.788.734.45.967 1.409.517 2.143zm3.06-6.808a1.949 1.949 0 01-2.681.644c-6.72-4.132-16.964-5.328-24.912-2.915a1.952 1.952 0 01-2.433-1.299 1.952 1.952 0 011.3-2.431c9.08-2.755 20.367-1.42 28.084 3.322a1.948 1.948 0 01.642 2.68zm.262-7.088c-8.057-4.786-21.35-5.226-29.044-2.891a2.338 2.338 0 11-1.357-4.475c8.83-2.681 23.511-2.163 32.788 3.344a2.336 2.336 0 01.818 3.204 2.336 2.336 0 01-3.203.818h-.002z" fill="#fff"/></g><defs><clipPath id="clip0"><path fill="#fff" d="M0 0h55v55H0z"/></clipPath><filter id="filter0_d" x="-1" y="2" width="58" height="58" filterUnits="userSpaceOnUse" color-interpolation-filters="sRGB"><feFlood flood-opacity="0" result="BackgroundImageFix"/><feColorMatrix in="SourceAlpha" values="0 0 0 0 0 0 0 0 0 0 0 0 0 0 0 0 0 0 127 0"/><feOffset dy="4"/><feGaussianBlur stdDeviation="2"/><feColorMatrix values="0 0 0 0 0 0 0 0 0 0 0 0 0 0 0 0 0 0 0.25 0"/><feBlend in2="BackgroundImageFix" result="effect1_dropShadow"/><feBlend in="SourceGraphic" in2="effect1_dropShadow" result="shape"/></filter></defs></svg>
